X: 1
T: Big John McNeil
C: Peter Milne (1824-1908)
N: Peter Milne was a friend and teacher of J.S.Skinner.
B: Hunter 237, BSFC IX-2, John McNeil's Reel in SFT p.13, NEFR p.133
M: C|
L: 1/8
K: A
[| "A"A,2CE FECE | "A"AECE FECE | "A"A,2CE FECE | "D"FAGF "E7"EDCB, | "A"A,2CE FECE |
| "A"AECE FECE | "D"B,DCE DFEG | "E7"FAGB "A"cAcd |[| "A"eAfA eAca | "A"eAfA e2 (3fga | "A"eAfA eAce |
| "D"daca "E7"B2cd | "A"eAfA eAca | "A"eAfA e2fg | "A"agfe "D"fedc |["1-N" B"E7"AGF EDCB, :|["last" d"E7"efg "A"a2 |]
